!!!COM: Beethoven
!!!OTL: 24 Variationen uber Venni Amore von V. Righini
!!!Variation: Variation 3 a
**kern
*clefG2
*k[f#c#]
*M2/4
*D:
=49
8ff#'
.
(8ff#
.
8ee') 
.
(8ee
.
=50
8dd') 
.
8dd'
.
8r
.
16r
16cc#'
*
=51
8b'
.
8r
.
*clefF4
8B'
.
8r
.
=52
8A'
.
8r
.
4r
.
.
.
=53
16AALL
16BB
16C#
16DJJ
*
16ELL
16F#
16G
16G#JJ
=54
16ALL
16B
16c#
16dJJ
*clefG2
16eLL
16f#
16g
16g#JJ
=55
16aLL
16b
16cc#
16ddJJ
16eeLL
16ff#
16gg
16gg#JJ
=56
8aa
8r
4r
.
*-
!!!COM: Beethoven
!!!OTL: 24 Variationen uber Venni Amore von V. Righini
!!!Variation: Variation 3 b
**kern
*clefG2
*k[f#c#]
*M2/4
*D:
=57
8ee'L 8gg'
.
(8eeJ 8gg
.
8g'L) 8cc#'
.
(8gJ 8cc#
.
=58
8f#'L) 8dd'
.
8f#'J 8dd'
.
8r
.
16r
16d' 16f#'
*
=59
8c#' 8g'
.
8r
.
*clefF4
8G' 8c#'
.
8r
.
=60
8F#' 8d'
.
8r
.
4r
.
.
.
=61
16AALL
16BB
16C#
16DJJ
*
16ELL
16F#
16G
16G#JJ
=62
16ALL
16B
16c#
16dJJ
*clefG2
16eLL
16f#
16g
16g#JJ
=63
16aLL
16b
16cc#
16ddJJ
16eeLL
16ff#
16gg
16gg#JJ
=64
16aaLL
16bb
16ccc#
16dddJJ
4r
.
*-
